X:1
T:Title
%%score { ( 1 4 ) | ( 2 3 ) }
L:1/8
M:6/8
K:C
V:1 treble nm="Grand Piano"
V:4 treble 
V:2 bass 
V:3 bass 
V:1
 z3 z2[Q:1/4=100] [EG] | [Ec]2 [EB] [EA][CE]>[EA] | G F2- F z F | BAG F2 [B,G] | %4
 [CE]3- [CE] z [EG]/[EG]/ | [Ec]2 [Ec] [Ec][FB]c | d3 A3 | Gcc c[^FB][Fc] | d6 | .c6 | .F6 | .B6 | %12
 .E6 | [Ec][Ec][Ec] [Ec][FB][Gc] |[M:15/16] d3 A3/2- A3 |[M:3/4] Gc c[D^Fd] [D=FA][DFB] | %16
[M:5/8] c2- [Fc-] [Ec]2 |] %17
V:2
 z3 z2 [C,G,] | [C,G,]2 [C,G,] [C,G,][C,G,]>[C,C] | [G,B,D] [G,B,D]2- [G,B,D] z [G,B,D] | %3
 .D3[K:bass] z3 | [C,G,]3- [C,G,] z [C,C]/[C,C]/ | [C,G,]2 [C,G,] [C,G,]D,[E,G,E] | %6
 [F,A,D]3 [^F,C_E]3 | [G,CE][G,CE][G,CE] [A,CE][D,B,][D,A,] | G3 z3 | %9
 [C,G,][C,G,][C,G,] .[C,G,]2 [C,C] | [G,B,D][G,B,][G,B,] .[G,B,]3 | %11
 [G,DF][G,D][K:bass][G,D] .[G,D]2 [G,,G,] | [C,G,C][C,G,][C,G,] .[C,G,]2 [C,C] | %13
 [C,G,][C,G,][C,G,] [C,G,][D,G,][E,_B,] |[M:15/16] [F,A,F]3 [^F,C_E]3/2- [F,CE]3 | %15
[M:3/4] [G,CE][A,CE] [A,CE]D, G,G, |[M:5/8] z2 A, G,2 |] %17
V:3
 x6 | x6 | x6 | [G,F]-[G,CF][K:bass][G,B,D] [G,B,D]2 [G,,G,] | x6 | x6 | x6 | x6 | [G,B,]6 | x6 | %10
 x6 | x2[K:bass] x4 | x6 | x6 |[M:15/16] x15/2 |[M:3/4] x6 |[M:5/8] C,-C,- C,3 |] %17
V:4
 x6 | x6 | x6 | x6 | x6 | x6 | x6 | x6 | z3 F3 | EEE EB[EA] | z DD .D3 | z FF FA[B,G] | %12
 z CC .C2 [EG] | x6 |[M:15/16] x15/2 |[M:3/4] x6 |[M:5/8] [CE]2 z z2 |] %17

